lib/flags/jm-jamaica.svg

<svg xmlns="http://www.w3.org/2000/svg" fill="none" aria-hidden="true" viewBox="0 0 42 30"><g id="Country=JM - Jamaica, Size=sm (36x24)" filter="url(#filter0_dd_91_27315)"><g clip-path="url(#clip0_91_27315)"><g id="flag"><mask id="mask0_91_27315" width="36" height="24" x="3" y="2" maskUnits="userSpaceOnUse" style="mask-type:alpha"><rect id="mask" width="36" height="24" x="3" y="2" fill="white"/></mask><g mask="url(#mask0_91_27315)"><g id="contents"><path id="background" fill="#009933" fill-rule="evenodd" d="M3 2H39V26H3V2Z" clip-rule="evenodd"/><path id="triangle" fill="#272727" stroke="#FECA00" stroke-width="2.7" d="M2.67362 0.911554L0.525 -0.664929V2V26V28.6649L2.67362 27.0884L19.0286 15.0884L20.5121 14L19.0286 12.9116L2.67362 0.911554Z"/><path id="triangle_2" fill="#272727" stroke="#FECA00" stroke-width="2.7" d="M39.3502 0.894497L41.475 -0.594766V2V26V28.5948L39.3502 27.1055L22.229 15.1055L20.6517 14L22.229 12.8945L39.3502 0.894497Z"/></g></g></g></g></g><defs><filter id="filter0_dd_91_27315" width="42" height="30" x="0" y="0" color-interpolation-filters="sRGB" filterUnits="userSpaceOnUse"><feFlood flood-opacity="0" result="BackgroundImageFix"/><feColorMatrix in="SourceAlpha" result="hardAlpha" values="0 0 0 0 0 0 0 0 0 0 0 0 0 0 0 0 0 0 127 0"/><feOffset dy="1"/><feGaussianBlur stdDeviation="1"/><feColorMatrix values="0 0 0 0 0.0627451 0 0 0 0 0.0941176 0 0 0 0 0.156863 0 0 0 0.06 0"/><feBlend in2="BackgroundImageFix" result="effect1_dropShadow_91_27315"/><feColorMatrix in="SourceAlpha" result="hardAlpha" values="0 0 0 0 0 0 0 0 0 0 0 0 0 0 0 0 0 0 127 0"/><feOffset dy="1"/><feGaussianBlur stdDeviation="1.5"/><feColorMatrix values="0 0 0 0 0.0627451 0 0 0 0 0.0941176 0 0 0 0 0.156863 0 0 0 0.1 0"/><feBlend in2="effect1_dropShadow_91_27315" result="effect2_dropShadow_91_27315"/><feBlend in="SourceGraphic" in2="effect2_dropShadow_91_27315" result="shape"/></filter><clipPath id="clip0_91_27315"><rect width="36" height="24" x="3" y="2" fill="white" rx="2"/></clipPath></defs></svg>

<svg xmlns="http://www.w3.org/2000/svg" fill="none" aria-hidden="true" viewBox="0 0 42 30"><g filter="url(#a)"><g clip-path="url(#b)"><mask id="c" width="36" height="24" x="3" y="2" maskUnits="userSpaceOnUse" style="mask-type:alpha"><path fill="#fff" d="M3 2h36v24H3z"/></mask><g mask="url(#c)"><path fill="#093" fill-rule="evenodd" d="M3 2h36v24H3V2Z" clip-rule="evenodd"/><path fill="#272727" stroke="#FECA00" stroke-width="2.7" d="M2.674.912.525-.665v29.33l2.149-1.577 16.355-12L20.512 14l-1.483-1.088-16.355-12ZM39.35.894l2.125-1.489v29.19l-2.125-1.49-17.121-12L20.652 14l1.577-1.105 17.121-12Z"/></g></g></g><defs><clipPath id="b"><rect width="36" height="24" x="3" y="2" fill="#fff" rx="2"/></clipPath><filter id="a" width="42" height="30" x="0" y="0" color-interpolation-filters="sRGB" filterUnits="userSpaceOnUse"><feFlood flood-opacity="0" result="BackgroundImageFix"/><feColorMatrix in="SourceAlpha" result="hardAlpha" values="0 0 0 0 0 0 0 0 0 0 0 0 0 0 0 0 0 0 127 0"/><feOffset dy="1"/><feGaussianBlur stdDeviation="1"/><feColorMatrix values="0 0 0 0 0.0627451 0 0 0 0 0.0941176 0 0 0 0 0.156863 0 0 0 0.06 0"/><feBlend in2="BackgroundImageFix" result="effect1_dropShadow_91_27315"/><feColorMatrix in="SourceAlpha" result="hardAlpha" values="0 0 0 0 0 0 0 0 0 0 0 0 0 0 0 0 0 0 127 0"/><feOffset dy="1"/><feGaussianBlur stdDeviation="1.5"/><feColorMatrix values="0 0 0 0 0.0627451 0 0 0 0 0.0941176 0 0 0 0 0.156863 0 0 0 0.1 0"/><feBlend in2="effect1_dropShadow_91_27315" result="effect2_dropShadow_91_27315"/><feBlend in="SourceGraphic" in2="effect2_dropShadow_91_27315" result="shape"/></filter></defs></svg>
